X:1
T:Benjamin, 87.87 D
T:Benjamin, 87.87 D
T:William Howard Doane, 1905
T:Public Domain Courtesy of the Cyber Hymnal™
C:William Howard Doane, 1905
Z:Public Domain
Z:Courtesy of the Cyber Hymnal™
%%score ( 1 2 ) ( 3 4 )
L:1/8
Q:1/4=112
M:9/8
K:Ab
V:1 treble 
V:2 treble 
V:3 bass 
V:4 bass 
V:1
 ([Ec][=D=B])[Ec] | [CA]3 [CE]3 (AB)[Ec] | [EB]3 [EB]3 (cc)[Fd] | [Ae]3 [Ac]3 [Ec]2 [DB] | %4
 [CA]6 ([Ec][=D=B])[Ec] | [CA]3 [CE]3 (AB)[_Gc] | [Fd]3 [Fd]3 (cB)[EA] | [EG]3 [EB]3 (BF)[_DG] | %8
 E6 (EG)[GB] | [Gd]3 [Gd]3 (EG)[GB] | [Ec]3 [Ec]3 (AB)[Ac] | [Ad]3 [Af]3 [Ae][Bd][Ac] | %12
 [GB]6 ([Ec][=D=B])[Ec] | [CA]3 [CA]3 ([CA][DB])[Ec] | [Fd]3 [Fd]3 (de)[Af] | %15
 [Ae]3- [Ae]2 [EGd] [Ac]2 [EB] | [EA]6 |] %17
V:2
 x3 | x6 E2 x | x6 E2 x | x9 | x9 | x6 E2 x | x6 E2 x | x6 =D2 x | E6 E2 x | x6 E2 x | x6 E2 x | %11
 x9 | x9 | x9 | x6 F2 x | x9 | x6 |] %17
V:3
 [A,,A,]2 [A,,A,] | [A,,E,]3 [A,,A,]3 ([C,A,][B,,G,])[A,,A,] | [E,G,]3 [E,G,]3 (G,A,)[E,B,] | %3
 [A,C]3 [A,,A,E]3 [E,A,]2 E, | [A,,E,]6 [A,,A,]2 [A,,A,] | [A,,E,]3 [A,,A,]3 ([C,A,][E,G,])A, | %6
 [D,A,]3 [D,A,]3 (A,D)[A,,C] | [B,,B,]3 [B,,G,]3 [B,,A,]2 [B,,A,] | [E,G,]6 z3 | %9
 [E,B,]2 [E,B,] [E,B,]2 [E,B,] z3 | [A,,A,]2 [A,,A,] [A,,A,]2 [A,,A,] ([A,C][G,B,])[A,E] | %11
 [F,D]3 [D,D]3 ([A,C][G,B,])[A,E] | [E,E]6 z3 | [A,,A,]2 [A,,A,] [A,,A,]2 [A,,A,] z3 | %14
 [D,A,]2 [D,A,] [D,A,]2 [D,A,] [D,A,]2 [D,D] | [E,C]3- [E,C]2 [E,B,] [E,E]2 [E,D] | [A,,C]6 |] %17
V:4
 x3 | x9 | x6 E,2 x | x8 E, | x9 | x8 A, | x6 A,,2 x | x9 | x9 | x9 | x9 | x9 | x9 | x9 | x9 | x9 | %16
 x6 |] %17

